X:25
T:PORTIA'S SMILE/ McKenzie Hay  #3
M:4/4
L:1/8
Q:126
C:J.S. SKINNER
R:STRATHSPEY
Z:Nigel Gatherer
K:D
|:"A7" G \
|"D"  F<DF>A "/A" d2 d>f |"A/C#" e>c"E/B"d>B "A"  c<A "D7" A>=c | "G" B<Gd>B "D/F#" A2 F>D | "A/E"  E>A "E" ^G>B "A" (3ABA "/C#"(3=GFE |!
|"D"  F<DF>A "Bm" d2 d>f | "A/C#" e>c"E/B"d>B "A" c<A "D7" A>=c | "G" (3BGB (3dcB "D/F#" (3Afe (3dcB | "Em" (3ABA "A" (3GFE "D"  F<D D |!
g |"D"  f<d"Em"g>e "D/F#" {^g}a2 f>d |"A/C#" e>c "E/B" d>B "A" c<AA>g |"D"  fd "Em" ge "D/F#" af "G"' bg |"D/A" a>f "A"g>e "D"   f<dd>e |!
"D" f<d"Em"g>e "D/F#" {^g} a2 f>d |"A/C#"  e>c"E7/B"d>B "A" c<A"D7"A=c |"G" (3BGB (3dcB "D/F#" (3Aag (3fed |
|1 "A" (3cBA "/C#" (3GFE "D" F<D D :|2"A" (3cBA "C#" (3gfe "D" f<d dA||
